src/app/assets/icon/cartera-icon.svg

<svg width="32" height="33" viewBox="0 0 32 33" fill="none" xmlns="http://www.w3.org/2000/svg">
<g id="Capa_1" clip-path="url(#clip0_2044_187)">
<path id="Vector" d="M3.40119 23.4151C2.6927 23.4151 2.11695 22.8298 2.11695 22.1096V14.5216C1.79671 14.4441 1.47648 14.3614 1.15625 14.2754V22.1096C1.15625 23.3678 2.16341 24.3916 3.40119 24.3916H16.1408C16.0545 24.0695 15.9799 23.744 15.9135 23.4151H3.40119Z" fill="#FFD95D"/>
<path id="Vector_2" d="M12.4972 0.976563C14.0586 0.976563 15.3578 2.12345 15.6299 3.63296H16.6038C16.3234 1.58374 14.5895 0.00170898 12.4972 0.00170898C10.4049 0.00170898 8.67104 1.58374 8.39062 3.63296H9.3646C9.63671 2.12514 10.9359 0.976563 12.4972 0.976563Z" fill="#FFD95D"/>
<path id="Vector_3" d="M2.11552 13.5165C5.52857 14.3683 9.01296 14.7967 12.4974 14.7967C15.9817 14.7967 19.4645 14.3683 22.8775 13.5165C23.1978 13.4373 23.518 13.3529 23.8382 13.2669C24.1087 13.1927 24.3791 13.1168 24.6479 13.0375C24.8537 12.9768 24.9947 12.7862 24.9947 12.5687V6.05501C24.9947 5.25725 24.3559 4.60791 23.5711 4.60791H1.42362C0.638805 4.60791 0 5.25725 0 6.05501V12.5687C0 12.7862 0.141035 12.9768 0.34678 13.0375C0.615576 13.1168 0.886031 13.1927 1.15649 13.2669C1.47506 13.3546 1.79529 13.4373 2.11718 13.5165H2.11552ZM0.960697 6.05501C0.960697 5.79528 1.16976 5.58276 1.42528 5.58276H23.5711C23.8266 5.58276 24.0357 5.79359 24.0357 6.05501V12.201C23.9394 12.228 23.8415 12.255 23.7453 12.2819C22.6585 12.5838 21.5634 12.8436 20.4617 13.0578C15.1969 14.0782 9.79944 14.0782 4.53469 13.0578C3.43296 12.8436 2.33952 12.5855 1.25106 12.2819C1.15483 12.255 1.05693 12.2297 0.960697 12.201V6.05501Z" fill="#FFD95D"/>
<path id="Vector_4" d="M10.4909 15.8018V17.0245C10.4909 18.2237 11.4516 19.2003 12.6313 19.2003C13.811 19.2003 14.7717 18.2237 14.7717 17.0245V15.8018H13.811V17.0245C13.811 17.6857 13.2817 18.2254 12.6297 18.2254C11.9776 18.2254 11.45 17.6874 11.45 17.0245V15.8018H10.4893H10.4909Z" fill="#FFD95D"/>
<path id="Vector_5" d="M31.5184 17.7077C28.7475 17.7077 26.2105 16.6165 24.8948 14.859C24.8035 14.7376 24.6625 14.6667 24.5131 14.6667C24.3638 14.6667 24.2228 14.7376 24.1315 14.859C24.0402 14.9821 23.9407 15.1002 23.8378 15.2166C23.5574 15.532 23.2355 15.8221 22.8771 16.0835C21.4817 17.1073 19.5603 17.7077 17.5078 17.7077C17.2424 17.7077 17.0283 17.9253 17.0283 18.1951V20.1904C17.0283 21.2867 17.1511 22.3678 17.3867 23.4151C17.4597 23.744 17.5443 24.0695 17.6389 24.3917C18.6876 27.9386 21.0354 31.0268 24.2742 32.9343C24.3489 32.9782 24.4318 33.0001 24.5148 33.0001C24.5977 33.0001 24.6807 32.9782 24.7554 32.9343C29.2237 30.3032 31.9996 25.4205 31.9996 20.1904V18.1951C31.9996 17.9253 31.7856 17.7077 31.5201 17.7077H31.5184ZM31.0389 20.1904C31.0389 24.9769 28.5451 29.4549 24.5131 31.9443C21.6974 30.2054 19.6333 27.4984 18.6428 24.3917C18.5399 24.0712 18.4503 23.7457 18.3706 23.4151C18.1201 22.3694 17.9874 21.2883 17.9874 20.1904V18.6724C19.7992 18.5948 21.5066 18.0872 22.8771 17.2489C23.2206 17.0398 23.5408 16.807 23.8378 16.5574C24.0801 16.3533 24.3074 16.1391 24.5148 15.9115C25.9898 17.5357 28.4057 18.5611 31.0406 18.6724V20.1904H31.0389Z" fill="#FFD95D"/>
<path id="Vector_6" d="M22.4466 24.2195L21.8094 23.3964L21.5771 23.0962C21.4129 22.8837 21.1109 22.8466 20.9035 23.0135C20.7774 23.1147 20.716 23.2648 20.721 23.4166C20.7243 23.5161 20.7575 23.6157 20.8222 23.7L21.3581 24.3932L23.8768 27.6517C23.9681 27.7698 24.1075 27.8372 24.2535 27.8372C24.2585 27.8372 24.2618 27.8372 24.2668 27.8372C24.4194 27.8322 24.5588 27.7563 24.6467 27.6298L29.1117 21.1448C29.2644 20.9238 29.2113 20.6203 28.9939 20.4651C28.7766 20.3099 28.4779 20.3639 28.3253 20.5848L24.2303 26.5301L22.4449 24.2211L22.4466 24.2195Z" fill="#FFD95D"/>
</g>
<defs>
<clipPath id="clip0_2044_187">
<rect width="32" height="33" fill="white"/>
</clipPath>
</defs>
</svg>

<?xml version="1.0" encoding="utf-8"?>
<!-- Generator: Adobe Illustrator 28.2.0, SVG Export Plug-In . SVG Version: 6.00 Build 0)  -->
<svg version="1.1" id="Capa_1" xmlns="http://www.w3.org/2000/svg" xmlns:xlink="http://www.w3.org/1999/xlink" x="0px" y="0px"
	 viewBox="0 0 32 33" style="enable-background:new 0 0 32 33;" xml:space="preserve">
<style type="text/css">
	.st0{fill:#FFFFFF;}
</style>
<g>
	<g id="Capa_1_00000078020522147275746210000011132692213195431308_">
		<path id="Vector" class="st0" d="M3.4,23.4c-0.7,0-1.3-0.6-1.3-1.3v-7.6c-0.3-0.1-0.6-0.2-1-0.2v7.8c0,1.3,1,2.3,2.2,2.3h12.7
			c-0.1-0.3-0.2-0.6-0.2-1H3.4z"/>
		<path id="Vector_2" class="st0" d="M12.5,1c1.6,0,2.9,1.1,3.1,2.7h1c-0.3-2-2-3.6-4.1-3.6S8.7,1.6,8.4,3.6h1
			C9.6,2.1,10.9,1,12.5,1z"/>
		<path id="Vector_3" class="st0" d="M2.1,13.5c3.4,0.9,6.9,1.3,10.4,1.3c3.5,0,7-0.4,10.4-1.3c0.3-0.1,0.6-0.2,1-0.2
			c0.3-0.1,0.5-0.2,0.8-0.2c0.2-0.1,0.3-0.3,0.3-0.5V6.1c0-0.8-0.6-1.4-1.4-1.4H1.4C0.6,4.6,0,5.3,0,6.1v6.5C0,12.8,0.1,13,0.3,13
			c0.3,0.1,0.5,0.2,0.8,0.2C1.5,13.4,1.8,13.4,2.1,13.5L2.1,13.5z M1,6.1c0-0.3,0.2-0.5,0.5-0.5h22.1c0.3,0,0.5,0.2,0.5,0.5v6.1
			c-0.1,0-0.2,0.1-0.3,0.1c-1.1,0.3-2.2,0.6-3.3,0.8c-5.3,1-10.7,1-15.9,0c-1.1-0.2-2.2-0.5-3.3-0.8c-0.1,0-0.2-0.1-0.3-0.1V6.1z"/>
		<path id="Vector_4" class="st0" d="M10.5,15.8V17c0,1.2,1,2.2,2.1,2.2s2.1-1,2.1-2.2v-1.2h-1V17c0,0.7-0.5,1.2-1.2,1.2
			c-0.7,0-1.2-0.5-1.2-1.2v-1.2H10.5L10.5,15.8z"/>
		<path id="Vector_5" class="st0" d="M31.5,17.7c-2.8,0-5.3-1.1-6.6-2.8c-0.1-0.1-0.2-0.2-0.4-0.2c-0.1,0-0.3,0.1-0.4,0.2
			c-0.1,0.1-0.2,0.2-0.3,0.4c-0.3,0.3-0.6,0.6-1,0.9c-1.4,1-3.3,1.6-5.4,1.6c-0.3,0-0.5,0.2-0.5,0.5v2c0,1.1,0.1,2.2,0.4,3.2
			c0.1,0.3,0.2,0.7,0.3,1c1,3.5,3.4,6.6,6.6,8.5c0.1,0,0.2,0.1,0.2,0.1c0.1,0,0.2,0,0.2-0.1c4.5-2.6,7.2-7.5,7.2-12.7v-2
			C32,17.9,31.8,17.7,31.5,17.7L31.5,17.7z M31,20.2c0,4.8-2.5,9.3-6.5,11.8c-2.8-1.7-4.9-4.4-5.9-7.6c-0.1-0.3-0.2-0.6-0.3-1
			c-0.3-1-0.4-2.1-0.4-3.2v-1.5c1.8-0.1,3.5-0.6,4.9-1.4c0.3-0.2,0.7-0.4,1-0.7c0.2-0.2,0.5-0.4,0.7-0.6c1.5,1.6,3.9,2.6,6.5,2.8
			L31,20.2L31,20.2z"/>
		<path id="Vector_6" class="st0" d="M22.4,24.2l-0.6-0.8l-0.2-0.3c-0.2-0.2-0.5-0.2-0.7-0.1c-0.1,0.1-0.2,0.3-0.2,0.4
			c0,0.1,0,0.2,0.1,0.3l0.5,0.7l2.5,3.3c0.1,0.1,0.2,0.2,0.4,0.2c0,0,0,0,0,0c0.2,0,0.3-0.1,0.4-0.2l4.5-6.5
			c0.2-0.2,0.1-0.5-0.1-0.7c-0.2-0.2-0.5-0.1-0.7,0.1l-4.1,5.9L22.4,24.2L22.4,24.2z"/>
	</g>
</g>
</svg>
